packages/components/icon/src/assets/icons/addfilter.svg

<svg width="24" height="24" viewBox="0 0 24 24" fill="none" xmlns="http://www.w3.org/2000/svg">
<path fill-rule="evenodd" clip-rule="evenodd" d="M20.3554 5C20.8327 5 21.2232 5.3905 21.2232 5.86777V6.9091C21.2232 7.38637 20.8327 7.77687 20.3554 7.77687H3.86777C3.3905 7.77687 3 7.38637 3 6.9091V5.86777C3 5.3905 3.3905 5 3.86777 5H20.3554ZM17.5135 10.6405C17.9907 10.6405 18.3812 11.031 18.3812 11.5083V12.5496C18.3812 13.0269 17.9907 13.4174 17.5135 13.4174H6.73141C6.25414 13.4174 5.86364 13.0269 5.86364 12.5496V11.5083C5.86364 11.031 6.25414 10.6405 6.73141 10.6405H17.5135ZM14.498 16.281C14.9752 16.281 15.3657 16.6715 15.3657 17.1488V18.1901C15.3657 18.6674 14.9752 19.0579 14.498 19.0579H9.72522C9.24795 19.0579 8.85745 18.6674 8.85745 18.1901V17.1488C8.85745 16.6715 9.24795 16.281 9.72522 16.281H14.498Z" fill="currentColor"/>
</svg>

<svg viewBox="0 0 24 24" fill="none" xmlns="http://www.w3.org/2000/svg"><path fill-rule="evenodd" clip-rule="evenodd" d="M20.355 5a.87.87 0 0 1 .868.868v1.041a.87.87 0 0 1-.868.868H3.868A.87.87 0 0 1 3 6.909V5.868A.87.87 0 0 1 3.868 5h16.487Zm-2.841 5.64a.87.87 0 0 1 .867.868v1.042a.87.87 0 0 1-.867.867H6.73a.87.87 0 0 1-.867-.867v-1.042a.87.87 0 0 1 .867-.867h10.783Zm-3.016 5.641a.87.87 0 0 1 .868.868v1.041a.87.87 0 0 1-.868.868H9.725a.87.87 0 0 1-.868-.868v-1.04a.87.87 0 0 1 .868-.868h4.773Z" fill="currentColor"/></svg>
